X:1
T:It Is Jesus
T:It Is Jesus
T:Charles Hutchinson Gabriel
T:Thomas Obediah Chisholm, 1910
T:Public Domain Courtesy of the Cyber Hymnal™
T:Public Domain Courtesy of the Cyber Hymnal™
C:Charles Hutchinson Gabriel
Z:Public Domain
Z:Courtesy of the Cyber Hymnal™
%%score ( 1 2 ) ( 3 4 )
L:1/8
Q:1/4=103
M:4/4
K:Eb
V:1 treble 
V:2 treble 
V:3 bass 
V:4 bass 
V:1
 B,2 | G3 F E2 D2 | C2 E2 [G,B,]3 B, | [DA]2 F2 G2 E2 | F6 ([=A,E]2 [B,D]2) F2 | F3 F G2 F2 | %6
w: 1.~Be-|hold! One com- eth|in the way, In|hum- ble gar- ments|clad; The * poor-|* est of the|
w: 2.~What|words of grace and|truth He speaks, Ne’er|heard on earth be-|fore; The * bur-|* dened sin- ner|
w: 3.~They|lead Him forth to|Cal- va- ry, O|see Him bleed and|die! His * parch-|* èd lips are|
w: 4.~But|lo! what won- drous|thing is done? The|grave has lost its|dead! To * weep-|* ing ones He|
 [DF]3 [CE] E2 E2 | c3 c E2 [CEF]2 | G6 ([CE][DF][CE] [=B,D]2) [B,DG]2 | %9
w: is He, No pil-|low for His head.|The hun- * * * gry,|
w: that voice, And feels|his sins no more.|He calls * * * the|
w: ing now For those|who cru- ci- fy!|His head * * * is|
w: ap- pears, When all|their hopes had fled.|He lin- * * * gers|
 G3 ([B,CE] [B,CE])[B,CEG] [B,CEA]2 [B,CEG]2 | G3 ([A,=C] [A,C])[A,CF] [A,CF]2 [A,_CF]2 | %11
w: * wea- * ry, sick and|* sad * In crowds a-|
w: * dead * to life a-|* gain, * Bids winds and|
w: * bowed, * the cup has|* passed, * His Spir- it|
w: * but * a lit- tle|* while, * To com- fort|
 F3 ([A,B,] [A,B,])[A,B,F] [A,DG]2 [B,DF]2 | B6 ([B,E][B,E][B,E]) ([B,DA] [B,DA] A2) [B,DA] | %13
w: * bout * Him press; To|* ev- * * ery * * one|
w: * bil- * lows cease; None|* o- * * ther * * man|
w: * finds * re- lease; He|* suf- * * fered * * thus|
w: * and * to bless; The|* heav’ns * * re- * * ceive|
 e3 ([EGB] [EGB])[B,EGB] [A,EA]2 [B,EG]2 | F3 ([CE] [CE])[CEF] !fermata![DF^Gc]3 [CEFc] | %15
w: * He * gives re- lief—|* What * man- ner of|
w: * such * works hath done—|* What * man- ner of|
w: * for * you and me—|* What * man- ner of|
w: * Him * from their sight—|* What * man- ner of|
 [B,EGB] B2 [B,EG] [B,EG] [=A,EF]2 [_A,DF]2 | [G,B,E]6 ||"^Refrain" [GB][GB] | %18
w: * * man is this? *|||
w: * * man is this? *|||
w: * * man is this? *|||
w: * * man is this? *|||
 [GB]4 [EG] z [GB][Ge] | [Ae]4 [Ad] z [DF]2 | [FA]3 [GB] [Ac]2 [Ad]2 | [GB]6 [GB][GB] | %22
w: ||||
w: ||||
w: ||||
w: ||||
 [Ge]4 [Ad] z [Be][Bd] | [Ad]4 [Ac] z [^Fe]2 | [GB]3 E [EG]2 [B,F]2 | [B,E]6 |] %26
w: ||||
w: ||||
w: ||||
w: ||||
V:2
 x2 | E4 B,4 | A,4 x4 | B,4 x4 | [B,D]2 x10 | D8- | x4 _D4 | [CE]6 x2 | [CE] x12 | [B,CE] x9 | %10
 [A,_C] x9 | [A,B,] x9 | [B,E] [B,DA] x12 | [EGB] x9 | [CE] x9 | x [B,EG] x7 | x6 || x2 | x8 | x8 | %20
 x8 | x8 | x8 | x8 | x3 E x4 | x6 |] %26
V:3
 z2 | B,3 A, G,2 [G,,E,]2 | E,4 E,3 G, | F,2 D,2 E,2 G,,2 | (B,,2 C,2 B,,2) z2 x4 | A,4 G,4 | %6
w: |~ ~ ~ ~|~ ~ ~|~ ~ ~ ~|~ * *|~ ~|
 [C,G,]4 [B,,G,]4 | [A,,A,]8 | G,,4 [G,,G,]2 z2 x5 | C,8 x2 | [F,,F,]6 [E,,E,]2 x2 | %11
w: ~ ~|~|~ ~|~|~ ~|
 D,4 B,,2 [A,,A,]2 x2 | [G,,G,]4 [F,,F,]4 x6 | [E,,E,]2 _D,2 C,2 B,,2 x2 | A,,4 !fermata!=A,,4 x2 | %15
w: ~ ~ ~|~ ~|~ ~ ~ ~|~ ~|
 B,,4 C,2 B,,2 x | [E,,E,]6 || [E,B,][E,B,] | [E,E]4 [E,B,] z [E,B,][E,B,] | %19
w: ~ ~ ~|~|~ It|is Je- sus, it|
 [F,B,]4 [B,F] z [B,,B,]2 | [B,,B,]3 [B,,B,] [B,,B,]2 [B,,B,]2 | [E,B,]6 [E,B,][E,B,] | %22
w: is Je- sus,|The Man of Gal-|i- lee; It|
 [E,B,]4 [F,B,] z [G,E][G,E] | [A,E]4 [A,E] z [=A,C]2 | [B,E]3 [B,,G,] [B,,B,]2 [B,,_A,]2 | %25
w: is Je- sus, bless-|èd Je- sus,|Who died on Cal-|
 [E,G,]6 |] %26
w: va-|
V:4
 x2 | E,6 x2 | A,,2 C,2 x4 | x8 | x12 | =B,,8 | x8 | x8 | x13 | x10 | x10 | x10 | x14 | x10 | x10 | %15
 x9 | x6 || x2 | x8 | x8 | x8 | x8 | x8 | x8 | x8 | x6 |] %26

